X: 4184
T: Blue Ribbon, The
R: polka
M: 2/4
K: Gmajor
|:bg d^c/d/|eA AB/4c/4^c/|dc A/B/c/d/|ed d2|
bg d^c/d/|eA AB/4c/4^c/|dc AF|1 G2 G2:|2 G2 G>B||
K: DMaj
|:AB/4=c/4^c/ d/e/f/g/|aa f2|gg e>=f|ff d2|
AB/4=c/4^c/ d/e/f/g/|aa f2|gg e/g/f/e/|df d2:|

